icons/folder-video-32.svg

<?xml version="1.0" encoding="UTF-8"?><svg id="icons" xmlns="http://www.w3.org/2000/svg" viewBox="0 0 32 32"><defs><style>.cls-1{fill:none;}.cls-1,.cls-2{stroke-width:0px;}</style></defs><rect class="cls-1" width="32" height="32"/><path class="cls-2" d="m16,7l-1-2H5l-1,2h-2v20h7.51666c-.19263-.32056-.36884-.65179-.51447-1H3v-14h26v14h-5.60175c-.14563.34821-.3219.67944-.51453,1h7.11627V7h-14Zm13,4H3v-3h1.61816l1-2h8.76361l1,2h13.61823v3Zm-6.20001,12c0,3.76001-3.03998,6.79999-6.79999,6.79999s-6.79999-3.03998-6.79999-6.79999,3.03998-6.79999,6.79999-6.79999,6.79999,3.03998,6.79999,6.79999Zm-1,0c0-3.20001-2.59998-5.79999-5.79999-5.79999s-5.79999,2.59998-5.79999,5.79999,2.59998,5.79999,5.79999,5.79999,5.79999-2.59998,5.79999-5.79999Zm-7.79999-4v8l6-4-6-4Zm1.2002,1.86816l3.19727,2.13184-3.19727,2.13184v-4.26367Z"/></svg>

<svg xmlns="http://www.w3.org/2000/svg" viewBox="0 0 32 32"><path stroke-width="0" fill="none" d="M0 0h32v32H0z"/><path d="M16 7l-1-2H5L4 7H2v20h7.517a7.753 7.753 0 0 1-.515-1H3V12h26v14h-5.602c-.145.348-.322.68-.514 1H30V7H16zm13 4H3V8h1.618l1-2h8.764l1 2H29v3zm-6.2 12c0 3.76-3.04 6.8-6.8 6.8S9.2 26.76 9.2 23s3.04-6.8 6.8-6.8 6.8 3.04 6.8 6.8zm-1 0c0-3.2-2.6-5.8-5.8-5.8s-5.8 2.6-5.8 5.8 2.6 5.8 5.8 5.8 5.8-2.6 5.8-5.8zM14 19v8l6-4-6-4zm1.2 1.868L18.397 23 15.2 25.132v-4.264z" stroke-width="0"/></svg>
